X:058
L:1/16
M:2/4
K:F
cB | Acfa gbeg | fcdc BAGF | EGce cBAG | FEGE C>B, |
ga | gece geba | gfed ^ceAG | (FAdf) (Adfa) | gfef defd |
cAGF EGDC | A,CFA cfaf | Bdgb EGce | f2f2 f2 :|]

